X: 26240
T: Meelick Team, The
R: jig
M: 6/8
K: Edorian
A|:Bde dBA|BAG EDB,|DEG Bed|BAG ABd|
e/f/ge dBA|BAG EDB,|DEG Bed|BAF E3:|
|:e2 f gfe|bfa gf/e/d|B/c/ef bag|fed e2 f|
gfg edB|BAF DFA|dcd fed|BAF E3:|

